source/icons/icon-water.svg

<svg width="26" height="29" viewBox="0 0 26 29" fill="none" xmlns="http://www.w3.org/2000/svg">
<path d="M10.875 0C9.24375 0 7.975 1.35937 7.975 3.08125C7.975 4.80312 9.24375 6.1625 10.875 6.1625C12.5063 6.1625 13.775 4.80312 13.775 3.08125C13.775 1.35937 12.5063 0 10.875 0ZM10.875 1.17812C11.8719 1.17812 12.5969 2.02094 12.5969 3.08125C12.5969 4.07812 11.8084 4.98438 10.875 4.98438C9.87813 4.98438 9.15313 4.14156 9.15313 3.08125C9.15313 2.08437 9.9325 1.17812 10.875 1.17812ZM0 24.7406C0 25.9188 0.407813 26.9156 1.35938 27.7313C2.35625 28.5831 3.53438 28.5106 3.53438 28.5106H22.5656C23.345 28.5106 24.3781 28.13 25.1937 27.0606C26.0366 26.0638 25.9822 24.7044 25.9822 24.7044V7.48563C25.9822 7.05063 25.8734 6.8875 25.2391 6.8875C24.6047 6.8875 24.5503 7.15938 24.5503 7.47656V24.6953C24.5322 24.9944 24.4778 25.7828 23.8072 26.4172C23.0731 27.0425 22.3572 26.9609 22.3572 26.9609C22.3572 26.9609 4.23219 26.9609 3.32594 26.9338C2.98156 26.8703 2.41969 26.7434 1.87594 26.0275C1.36844 25.3025 1.46812 24.3962 1.46812 24.3962V7.1775C1.46812 6.71531 1.2325 6.54313 0.743125 6.54313C0.25375 6.54313 0 6.71531 0 7.12313V24.7406ZM16.3125 8.42813C15.225 8.66375 14.1375 8.80875 12.0531 10.7844C9.96875 12.7781 8.42813 12.6875 6.8875 12.5969C5.34688 12.5063 3.71563 11.0563 3.44375 10.6938C3.10844 10.3403 2.5375 10.5759 2.35625 10.8116C2.20219 11.0472 2.20219 11.455 2.465 11.8084C3.73375 12.9866 4.91188 13.8928 7.1775 14.0741C9.44312 14.2916 11.6181 13.2675 13.0681 11.8084C14.5181 10.3584 15.2431 10.0866 16.3306 9.90531C18.9587 9.48844 20.4994 10.5216 21.4056 11.1741C22.4025 12.2616 22.6744 11.9534 22.9462 11.6453C23.49 10.9294 22.7197 10.3766 21.8588 9.74219C20.0463 8.56406 18.3244 8.11094 16.3306 8.47344L16.3125 8.42813ZM7.25 15.5875C6.07188 15.5875 5.16562 16.5844 5.16562 17.8531C5.16562 19.1219 6.07188 20.1188 7.25 20.1188C8.42813 20.1188 9.33438 19.1219 9.33438 17.8531C9.33438 16.5844 8.42813 15.5875 7.25 15.5875ZM19.0312 16.3669C17.4906 16.3669 16.2219 17.7262 16.2219 19.3575C16.2219 20.9888 17.4906 22.3481 19.0312 22.3481C20.5719 22.3481 21.8406 20.9888 21.8406 19.3575C21.8406 17.7262 20.5719 16.3669 19.0312 16.3669ZM19.0312 17.8169C19.8288 17.8169 20.4813 18.5147 20.4813 19.3575C20.4813 20.2184 19.8288 20.8981 19.0312 20.8981C18.2337 20.8981 17.5812 20.2003 17.5812 19.3575C17.5812 18.4966 18.2337 17.8169 19.0312 17.8169Z" fill="white"/>
</svg>

<svg viewBox="0 0 26 29" fill="none" xmlns="http://www.w3.org/2000/svg"><path d="M10.88 0c-1.64 0-2.9 1.36-2.9 3.08s1.26 3.08 2.9 3.08c1.63 0 2.9-1.36 2.9-3.08s-1.27-3.08-2.9-3.08Zm0 1.18c1 0 1.72.84 1.72 1.9 0 1-.8 1.9-1.72 1.9-1 0-1.73-.84-1.73-1.9 0-1 .78-1.9 1.72-1.9Zm-10.88 23.56c0 1.18.4 2.18 1.36 3 1 .84 2.17.77 2.17.77h19.04c.77 0 1.8-.38 2.62-1.45.85-1 .8-2.36.8-2.36v-17.21c0-.44-.12-.6-.75-.6-.64 0-.69.27-.69.59v17.22c-.02.3-.07 1.08-.74 1.72-.74.62-1.45.54-1.45.54s-18.13 0-19.03-.03a2.14 2.14 0 0 1-1.45-.9c-.51-.73-.41-1.63-.41-1.63v-17.22c0-.46-.24-.64-.73-.64s-.74.18-.74.58v17.62Zm16.31-16.31c-1.08.23-2.17.38-4.26 2.35-2.08 2-3.62 1.9-5.16 1.82-1.54-.1-3.17-1.54-3.45-1.9-.33-.36-.9-.12-1.08.11-.16.24-.16.64.1 1 1.27 1.18 2.45 2.08 4.72 2.26a7.5 7.5 0 0 0 5.89-2.26c1.45-1.45 2.17-1.72 3.26-1.9a6.3 6.3 0 0 1 5.08 1.26c1 1.1 1.26.78 1.54.48.54-.72-.23-1.27-1.1-1.9a7.24 7.24 0 0 0-5.52-1.28l-.02-.04Zm-9.06 7.16c-1.18 0-2.08 1-2.08 2.26 0 1.27.9 2.27 2.08 2.27 1.18 0 2.08-1 2.08-2.27s-.9-2.26-2.08-2.26Zm11.78.78c-1.54 0-2.8 1.36-2.8 2.99 0 1.63 1.26 2.99 2.8 2.99 1.54 0 2.81-1.36 2.81-3 0-1.62-1.27-2.98-2.8-2.98Zm0 1.45c.8 0 1.45.7 1.45 1.54a1.5 1.5 0 0 1-1.45 1.54c-.8 0-1.45-.7-1.45-1.54 0-.86.65-1.54 1.45-1.54Z" fill="#fff"/></svg>
